svgs/Facebook-icons.svg

<svg height="60" viewBox="0 0 60 60" width="60" xmlns="http://www.w3.org/2000/svg"><path d="m0 30c0-16.5685433 13.4314567-30 30-30s30 13.4314567 30 30-13.4314567 30-30 30-30-13.4314567-30-30zm32.1269439 16.6393459v-16.3215839h4.5054709l.5970722-5.6245082h-5.1025431l.0076547-2.8151205c0-1.4669583.1393807-2.2529881 2.2463565-2.2529881h2.816637v-5.6251452h-4.5061088c-5.4125614 0-7.3176427 2.7284916-7.3176427 7.3169565v3.3769343h-3.3738406v5.6245082h3.3738406v16.3209469z" fill="#e96e14" fill-rule="evenodd"/></svg>

<?xml version="1.0" encoding="UTF-8"?>
<svg width="60px" height="60px" viewBox="0 0 60 60" version="1.1" xmlns="http://www.w3.org/2000/svg" xmlns:xlink="http://www.w3.org/1999/xlink">
    <!-- Generator: Sketch 41.2 (35397) - http://www.bohemiancoding.com/sketch -->
    <title>Facebook-icons</title>
    <desc>Created with Sketch.</desc>
    <defs></defs>
    <g id="Page-1" stroke="none" stroke-width="1" fill="none" fill-rule="evenodd">
        <g id="Desktop-HD" transform="translate(-433.000000, -1431.000000)" fill="#E96E14">
            <g id="Group-2" transform="translate(433.000000, 1431.000000)">
                <g id="Facebook">
                    <path d="M0,30 C0,13.4314567 13.4314567,0 30,0 C46.5685433,0 60,13.4314567 60,30 C60,46.5685433 46.5685433,60 30,60 C13.4314567,60 0,46.5685433 0,30 Z M32.1269439,46.6393459 L32.1269439,30.317762 L36.6324148,30.317762 L37.229487,24.6932538 L32.1269439,24.6932538 L32.1345986,21.8781333 C32.1345986,20.411175 32.2739793,19.6251452 34.3809551,19.6251452 L37.1975921,19.6251452 L37.1975921,14 L32.6914833,14 C27.2789219,14 25.3738406,16.7284916 25.3738406,21.3169565 L25.3738406,24.6938908 L22,24.6938908 L22,30.318399 L25.3738406,30.318399 L25.3738406,46.6393459 L32.1269439,46.6393459 Z" id="Combined-Shape"></path>
                </g>
            </g>
        </g>
    </g>
</svg>
